docs/img/logo.svg

<svg width="200" height="41" viewBox="0 0 200 41" fill="none" xmlns="http://www.w3.org/2000/svg">
<path d="M30.0279 18.1927C28.8996 19.3279 28.3357 20.9068 28.4897 22.5L28.4632 22.4735C28.6215 24.3484 27.9452 26.1976 26.6148 27.528C25.2844 28.8585 23.4351 29.5347 21.5603 29.3765L21.5868 29.4029C19.3168 29.1917 17.158 30.4264 16.1893 32.4902C15.2205 34.5539 15.6498 37.0035 17.2626 38.6148C18.8754 40.2262 21.3254 40.6532 23.3883 39.6826C25.4511 38.712 26.6839 36.5522 26.4706 34.2824L26.4985 34.3088C26.3403 32.434 27.0165 30.5847 28.347 29.2543C29.6774 27.9239 31.5266 27.2476 33.4015 27.4059L33.3735 27.3794C35.8683 27.6038 38.1897 26.0826 38.9799 23.7056C39.7701 21.3287 38.8215 18.7204 36.689 17.4064C34.5564 16.0925 31.8001 16.418 30.0323 18.1927H30.0279Z" fill="#5454D4"/>
<path d="M19.1794 25.9353L19.1515 25.9088C20.7456 26.0695 22.3277 25.5057 23.4611 24.3732C24.5945 23.2407 25.1594 21.659 25 20.0647L25.0279 20.0912C24.8697 18.2163 25.5459 16.3671 26.8764 15.0367C28.2068 13.7062 30.056 13.03 31.9309 13.1882L31.9029 13.1618C34.1731 13.375 36.3332 12.1416 37.3034 10.0781C38.2736 8.01464 37.8456 5.56435 36.2333 3.95202C34.6209 2.3397 32.1706 1.91166 30.1072 2.88188C28.0437 3.8521 26.8103 6.01217 27.0235 8.28236L26.997 8.25442C27.1558 10.1294 26.4797 11.979 25.1492 13.3095C23.8186 14.64 21.9691 15.3161 20.0941 15.1574L20.1206 15.1853C18.5264 15.0247 16.9443 15.5884 15.8109 16.7209C14.6775 17.8535 14.1126 19.4351 14.272 21.0294L14.2456 21.0029C14.4033 22.8776 13.7269 24.7266 12.3966 26.0569C11.0663 27.3872 9.21733 28.0636 7.34263 27.9059L7.3691 27.9324C5.09892 27.7192 2.93885 28.9526 1.96863 31.016C0.998411 33.0795 1.42644 35.5298 3.03877 37.1421C4.6511 38.7544 7.10139 39.1825 9.16485 38.2122C11.2283 37.242 12.4617 35.082 12.2485 32.8118L12.2765 32.8382C12.1182 30.9634 12.7945 29.1142 14.1249 27.7837C15.4553 26.4533 17.3046 25.777 19.1794 25.9353Z" fill="#FF7143"/>
<path d="M9.32353 22.9838C10.452 21.8488 11.0155 20.2695 10.8603 18.6765L10.8882 18.7029C10.7298 16.8275 11.4065 14.9778 12.7376 13.6472C14.0687 12.3167 15.9188 11.6408 17.7941 11.8L17.7662 11.7735C20.0356 11.9861 22.1946 10.7528 23.1642 8.69004C24.1339 6.62723 23.7058 4.1779 22.0941 2.56617C20.4824 0.95444 18.0331 0.526435 15.9703 1.49606C13.9074 2.46569 12.6742 4.62472 12.8868 6.89411L12.8603 6.86764C13.0186 8.74247 12.3423 10.5917 11.0119 11.9222C9.68144 13.2526 7.83218 13.9288 5.95735 13.7706L5.98382 13.7971C3.48912 13.5733 1.16818 15.0949 0.378454 17.4719C-0.411274 19.8488 0.537647 22.4568 2.67022 23.7705C4.8028 25.0841 7.55886 24.7584 9.32647 22.9838H9.32353Z" fill="#5454D4"/>
<path d="M54.8779 8.31618H59.2456V29.5706H54.8779V8.31618Z" fill="#19191B"/>
<path fill-rule="evenodd" clip-rule="evenodd" d="M66.461 15.1418C63.5787 16.3459 61.7066 19.169 61.7191 22.2926C61.704 24.3409 62.5131 26.3092 63.9644 27.7546C65.4156 29.2001 67.3872 30.0013 69.4353 29.9779C72.559 29.9779 75.3746 28.0946 76.567 25.2074C77.7595 22.3203 77.0937 18.999 74.8805 16.7947C72.6672 14.5903 69.3433 13.9378 66.461 15.1418ZM69.3733 19.0359C71.2111 19.0019 72.733 20.4552 72.7838 22.2926C72.8335 23.2035 72.4999 24.0937 71.8638 24.7476C71.2278 25.4015 70.3472 25.7596 69.4353 25.7353C67.5972 25.7354 66.1023 24.2544 66.0853 22.4163C66.0683 20.5783 67.5355 19.0698 69.3733 19.0359Z" fill="#19191B"/>
<path fill-rule="evenodd" clip-rule="evenodd" d="M94.5588 28.8368V15.0132L90.3074 15.0103V16.4956C89.2702 15.2266 87.6929 14.5244 86.0559 14.6029C82.0626 14.7289 78.8906 18.0025 78.8906 21.9978C78.8906 25.9931 82.0626 29.2667 86.0559 29.3926C87.6929 29.4712 89.2702 28.769 90.3074 27.5V28.8309C90.3804 29.709 90.0506 30.5727 89.4107 31.1785C88.7709 31.7843 87.8904 32.0665 87.0176 31.9456C85.6371 32.0865 84.3141 31.3555 83.6985 30.1118L79.9721 32.2662C81.43 34.6416 84.0927 36.0036 86.8721 35.7956C90.7441 35.7956 94.5588 33.7279 94.5588 28.8368ZM88.2334 18.6356C89.5473 19.2281 90.3689 20.5599 90.3088 22C90.336 22.9298 89.9688 23.8278 89.2978 24.4722C88.6269 25.1165 87.7147 25.4471 86.7868 25.3824C85.3455 25.3841 84.0479 24.5093 83.509 23.1725C82.9702 21.8358 83.2982 20.3056 84.3378 19.3073C85.3774 18.309 86.9195 18.043 88.2334 18.6356Z" fill="#19191B"/>
<path fill-rule="evenodd" clip-rule="evenodd" d="M101.774 15.1418C98.8918 16.3459 97.0198 19.169 97.0323 22.2926C97.0172 24.3409 97.8263 26.3092 99.2775 27.7546C100.729 29.2001 102.7 30.0013 104.748 29.9779C107.872 29.9779 110.688 28.0946 111.88 25.2074C113.073 22.3203 112.407 18.999 110.194 16.7947C107.98 14.5903 104.657 13.9378 101.774 15.1418ZM104.686 19.0359C106.524 19.0019 108.046 20.4552 108.097 22.2926C108.147 23.2035 107.813 24.0937 107.177 24.7476C106.541 25.4015 105.66 25.7596 104.748 25.7353C102.91 25.7354 101.415 24.2544 101.398 22.4163C101.381 20.5783 102.849 19.0698 104.686 19.0359Z" fill="#19191B"/>
<path fill-rule="evenodd" clip-rule="evenodd" d="M116.119 8.69065C115.14 9.09626 114.501 10.0518 114.501 11.1118C114.516 12.5531 115.681 13.718 117.122 13.7323C118.182 13.7323 119.138 13.0939 119.543 12.1146C119.949 11.1354 119.725 10.0082 118.975 9.25872C118.226 8.50924 117.098 8.28503 116.119 8.69065ZM119.312 15.0132H114.943L114.937 29.572H119.312V15.0132Z" fill="#19191B"/>
<path fill-rule="evenodd" clip-rule="evenodd" d="M136.289 27.5823C137.595 26.1398 138.273 24.236 138.171 22.2926C138.273 20.3489 137.597 18.4445 136.29 17.0016C134.984 15.5587 133.156 14.6964 131.212 14.6059C129.573 14.5165 127.981 15.1682 126.875 16.3809V15.0132H122.507V35.3941H126.875V28.2015C127.98 29.4151 129.573 30.0674 131.212 29.9779C133.156 29.887 134.983 29.0248 136.289 27.5823ZM130.281 18.9152C132.183 18.8834 133.755 20.391 133.803 22.2926C133.869 23.2377 133.528 24.166 132.867 24.8442C132.205 25.5225 131.286 25.8862 130.34 25.8441C128.437 25.8443 126.891 24.3108 126.875 22.4086C126.859 20.5064 128.379 18.947 130.281 18.9152Z" fill="#19191B"/>
<path d="M151.649 25.2029C151.649 28.5515 148.738 29.9779 145.594 29.9779C142.995 30.2134 140.515 28.8407 139.334 26.5132L143.118 24.3588C143.433 25.4424 144.463 26.1582 145.588 26.0765C146.635 26.0765 147.16 25.7559 147.16 25.175C147.16 23.5721 139.997 24.4176 139.997 19.3809C139.997 16.2059 142.676 14.6059 145.704 14.6059C148.023 14.5325 150.197 15.7258 151.381 17.7206L147.654 19.7294C147.32 18.9498 146.553 18.4455 145.704 18.4485C144.947 18.4485 144.481 18.7426 144.481 19.2632C144.487 20.9235 151.649 19.8162 151.649 25.2029Z" fill="#19191B"/>
<path d="M167.603 15.0132V29.5721H163.235V28.2029C162.213 29.4284 160.665 30.0892 159.074 29.9794C156.132 29.9794 153.632 27.8838 153.632 23.95V15.0132H158V23.3103C157.926 24.0121 158.165 24.7109 158.653 25.2208C159.14 25.7308 159.828 26.0001 160.532 25.9573C162.134 25.9573 163.24 25.0265 163.24 22.9588V15.0176L167.603 15.0132Z" fill="#19191B"/>
<path d="M192.647 20.6323V29.5706H188.279V21.0103C188.279 19.5544 187.581 18.6235 186.184 18.6235C184.728 18.6235 183.912 19.6426 183.912 21.3603V29.5706H179.546V21.0103C179.546 19.5544 178.847 18.6235 177.449 18.6235C175.993 18.6235 175.178 19.6426 175.178 21.3603V29.5706H170.81V15.0118H175.178V16.35C176.098 15.1437 177.567 14.4864 179.079 14.6044C180.6 14.53 182.047 15.2592 182.893 16.525C183.876 15.2017 185.471 14.4764 187.115 14.6044C190.457 14.6059 192.647 16.9926 192.647 20.6323Z" fill="#19191B"/>
<path d="M196.341 14.9235C198.131 14.9235 199.582 13.4724 199.582 11.6824C199.582 9.8923 198.131 8.44118 196.341 8.44118C194.551 8.44118 193.1 9.8923 193.1 11.6824C193.1 13.4724 194.551 14.9235 196.341 14.9235Z" fill="#19191B"/>
</svg>

<svg width="200" height="41" fill="none" xmlns="http://www.w3.org/2000/svg"><path d="M30.028 18.193A5.376 5.376 0 0028.49 22.5l-.027-.026a6.388 6.388 0 01-6.903 6.902l.027.027a5.409 5.409 0 104.884 4.88l.027.026a6.388 6.388 0 016.903-6.903l-.028-.027a5.398 5.398 0 10-3.34-9.186h-.005z" fill="#5454D4"/><path d="M19.18 25.935l-.029-.026A5.34 5.34 0 0025 20.065l.028.026a6.388 6.388 0 016.903-6.903l-.028-.026a5.409 5.409 0 10-4.88-4.88l-.026-.028a6.387 6.387 0 01-6.903 6.903l.027.028a5.34 5.34 0 00-5.849 5.844l-.026-.026a6.39 6.39 0 01-6.903 6.903l.026.026a5.409 5.409 0 104.88 4.88l.027.026a6.388 6.388 0 016.903-6.903z" fill="#FF7143"/><path d="M9.324 22.984a5.37 5.37 0 001.536-4.308l.028.027a6.388 6.388 0 016.906-6.903l-.028-.027a5.407 5.407 0 10-4.88-4.879l-.026-.026a6.388 6.388 0 01-6.903 6.903l.027.026a5.398 5.398 0 103.342 9.187h-.002z" fill="#5454D4"/><path d="M54.878 8.316h4.368v21.255h-4.368V8.316z" fill="#19191B"/><path fill-rule="evenodd" clip-rule="evenodd" d="M66.461 15.142a7.716 7.716 0 00-4.742 7.15 7.63 7.63 0 007.716 7.686 7.716 7.716 0 10-2.974-14.836zm2.912 3.894a3.35 3.35 0 013.41 3.257 3.266 3.266 0 01-3.348 3.442 3.35 3.35 0 01-.062-6.7zm25.186 9.801V15.013l-4.252-.003v1.486a5.171 5.171 0 00-4.251-1.893 7.399 7.399 0 000 14.79 5.17 5.17 0 004.251-1.893v1.33a2.902 2.902 0 01-3.29 3.116 3.327 3.327 0 01-3.319-1.834l-3.726 2.154a7.444 7.444 0 006.9 3.53c3.872 0 7.687-2.068 7.687-6.96zm-6.326-10.201A3.53 3.53 0 0190.31 22a3.294 3.294 0 01-3.522 3.382 3.53 3.53 0 111.446-6.746zm13.541-3.494a7.716 7.716 0 00-4.742 7.15 7.63 7.63 0 007.716 7.686 7.716 7.716 0 10-2.974-14.836zm2.912 3.894a3.35 3.35 0 013.411 3.257 3.265 3.265 0 01-3.349 3.442 3.35 3.35 0 01-.062-6.7zM116.119 8.69a2.621 2.621 0 00-1.618 2.422 2.648 2.648 0 002.621 2.62 2.62 2.62 0 10-1.003-5.041zm3.193 6.323h-4.369l-.006 14.559h4.375V15.013zm16.977 12.569a7.311 7.311 0 001.882-5.29 7.31 7.31 0 00-6.959-7.686 5.467 5.467 0 00-4.337 1.775v-1.368h-4.368v20.381h4.368v-7.192a5.463 5.463 0 004.337 1.776 7.309 7.309 0 005.077-2.396zm-6.008-8.667a3.465 3.465 0 013.522 3.378 3.325 3.325 0 01-3.463 3.551 3.464 3.464 0 01-.059-6.929z" fill="#19191B"/><path d="M151.649 25.203c0 3.349-2.911 4.775-6.055 4.775a6.375 6.375 0 01-6.26-3.465l3.784-2.154a2.392 2.392 0 002.47 1.717c1.047 0 1.572-.32 1.572-.901 0-1.603-7.163-.757-7.163-5.794 0-3.175 2.679-4.775 5.707-4.775a6.367 6.367 0 015.677 3.115l-3.727 2.008a2.112 2.112 0 00-1.95-1.28c-.757 0-1.223.294-1.223.814.006 1.66 7.168.553 7.168 5.94zm15.954-10.19v14.56h-4.368v-1.37a4.973 4.973 0 01-4.161 1.776c-2.942 0-5.442-2.095-5.442-6.029v-8.937H158v8.297a2.4 2.4 0 002.532 2.647c1.602 0 2.708-.93 2.708-2.998v-7.941l4.363-.005zm25.044 5.619v8.939h-4.368v-8.56c0-1.457-.698-2.387-2.095-2.387-1.456 0-2.272 1.019-2.272 2.736v8.21h-4.366v-8.56c0-1.456-.699-2.387-2.097-2.387-1.456 0-2.271 1.02-2.271 2.737v8.21h-4.368V15.013h4.368v1.338a4.47 4.47 0 013.901-1.746 4.332 4.332 0 013.814 1.921 4.796 4.796 0 014.222-1.92c3.342 0 5.532 2.388 5.532 6.027zm3.694-5.708a3.241 3.241 0 100-6.483 3.241 3.241 0 000 6.482z" fill="#19191B"/></svg>
